static/logos/adobe-wordmark-color.svg

<svg width="100" height="28" viewBox="0 0 100 28" fill="none" xmlns="http://www.w3.org/2000/svg">
<path d="M10.902 0H0V26.0724L10.902 0Z" fill="#FA0C00"/>
<path d="M18.5703 0H29.4581V26.0724L18.5703 0Z" fill="#FA0C00"/>
<path d="M14.7344 9.60938L21.6733 26.0724H17.1207L15.0469 20.8309H9.96875L14.7344 9.60938Z" fill="#FA0C00"/>
<path d="M47.2427 16.5803L48.5283 20.2664C48.5708 20.3588 48.6348 20.4013 48.7485 20.4013H51.2199C51.355 20.4013 51.3763 20.3373 51.355 20.2024L46.2485 6.01922C46.227 5.90559 46.2057 5.88428 46.0921 5.88428H43.0239C42.9388 5.88428 42.889 5.94819 42.889 6.04053C42.8465 6.78626 42.7825 7.01353 42.6901 7.23371L38.1376 20.1811C38.1163 20.3373 38.1661 20.4013 38.2939 20.4013H40.5027C40.6376 20.4013 40.7016 20.3588 40.7512 20.2237L41.9657 16.5803H47.2427ZM42.6688 14.1726C43.3365 12.1556 44.2172 9.57035 44.5723 8.09308H44.5936C45.0339 9.64137 46.0708 12.7096 46.5396 14.1726H42.6688Z" fill="#FA0C00"/>
<path d="M57.9269 20.6215C59.2551 20.6215 60.6683 20.3801 62.1031 19.7621C62.2167 19.7195 62.238 19.6699 62.238 19.5633C62.1954 19.1655 62.1456 18.5902 62.1456 18.1499V4.79764C62.1456 4.71242 62.1456 4.6698 62.0391 4.6698H59.6314C59.5391 4.6698 59.4965 4.71242 59.4965 4.82605V9.3502C59.1202 9.30758 58.8573 9.28627 58.5449 9.28627C54.6598 9.28627 52.2734 11.8502 52.2734 15.0533C52.2734 18.7679 54.7238 20.6215 57.9269 20.6215ZM59.4965 18.1499C59.0987 18.2777 58.6585 18.3275 58.2111 18.3275C56.4496 18.3275 55.0078 17.3331 55.0078 14.9184C55.0078 12.7806 56.4922 11.5164 58.4596 11.5164C58.8573 11.5164 59.2053 11.559 59.4965 11.6726V18.1499Z" fill="#FA0C00"/>
<path d="M69.9162 9.28625C66.5994 9.28625 64.5469 11.8289 64.5469 14.9681C64.5469 17.7735 66.1803 20.6215 69.8665 20.6215C72.9843 20.6215 75.1718 18.3275 75.1718 14.8971C75.1718 11.8715 73.3182 9.28625 69.9162 9.28625ZM69.7812 11.5164C71.6561 11.5164 72.4516 13.1286 72.4516 14.9681C72.4516 17.2408 71.2798 18.37 69.9162 18.37C68.2329 18.37 67.2387 16.9567 67.2387 14.9184C67.2387 12.8232 68.2969 11.5164 69.7812 11.5164Z" fill="#FA0C00"/>
<path d="M77.6642 4.6698C77.5718 4.6698 77.5078 4.71242 77.5078 4.82605V19.9397C77.5078 20.0037 77.5718 20.1173 77.6642 20.1386C78.7224 20.4653 79.8304 20.6215 80.9738 20.6215C84.248 20.6215 87.4298 18.5902 87.4298 14.4993C87.4298 11.5377 85.3985 9.28627 82.2167 9.28627C81.4851 9.28627 80.8033 9.39991 80.2067 9.59878L80.1784 4.84736C80.1784 4.69111 80.1358 4.6698 79.9795 4.6698H77.6642ZM84.7096 14.7692C84.7096 17.2195 83.0334 18.3701 81.2224 18.3701C80.846 18.3701 80.5122 18.3488 80.2067 18.2564V11.8076C80.5547 11.6726 80.9738 11.559 81.748 11.559C83.4951 11.559 84.7096 12.667 84.7096 14.7692Z" fill="#FA0C00"/>
<path d="M96.4149 15.5647C97.4944 15.5647 98.3822 15.5434 98.6877 15.4723C98.8013 15.451 98.8438 15.4084 98.8651 15.3161C98.9291 15.0746 98.9575 14.5703 98.9575 13.9525C98.9575 11.8502 97.6933 9.28625 94.4262 9.28625C91.0882 9.28625 89.2344 12.0064 89.2344 15.0746C89.2344 17.7948 90.6691 20.6215 94.6889 20.6215C96.1947 20.6215 97.1677 20.38 98.0058 19.9822C98.0909 19.9397 98.1336 19.8686 98.1336 19.7408V17.9013C98.1336 17.7948 98.0697 17.7735 98.0058 17.8161C97.1677 18.1712 96.2586 18.3488 95.2644 18.3488C93.0129 18.3488 91.9902 17.1059 91.9262 15.5647H96.4149ZM91.9262 13.6613C92.1038 12.5817 92.7856 11.4098 94.3126 11.4098C95.9958 11.4098 96.4362 12.8232 96.4362 13.4624C96.4362 13.4837 96.4362 13.576 96.4362 13.6399C96.3438 13.6613 96.0598 13.6613 95.2216 13.6613H91.9262Z" fill="#FA0C00"/>
</svg>

<svg xmlns="http://www.w3.org/2000/svg" width="228.571" height="64" fill="none" viewBox="0 0 100 28"><path fill="#FA0C00" d="M10.902 0H0v26.072L10.902 0ZM18.57 0h10.888v26.072L18.57 0ZM14.734 9.61l6.94 16.462H17.12l-2.074-5.241H9.969l4.765-11.222ZM47.243 16.58l1.285 3.686c.043.093.107.135.22.135h2.472c.135 0 .156-.064.135-.199L46.249 6.02c-.022-.113-.043-.135-.157-.135h-3.068c-.085 0-.135.064-.135.157-.043.745-.107.973-.199 1.193L38.138 20.18c-.022.156.028.22.156.22h2.209c.135 0 .199-.042.248-.177l1.215-3.644h5.277Zm-4.574-2.407c.668-2.017 1.548-4.603 1.903-6.08h.022c.44 1.548 1.477 4.617 1.946 6.08h-3.871ZM57.927 20.622c1.328 0 2.741-.242 4.176-.86.114-.043.135-.092.135-.199a14.77 14.77 0 0 1-.092-1.413V4.798c0-.086 0-.128-.107-.128h-2.408c-.092 0-.135.042-.135.156V9.35a7.914 7.914 0 0 0-.951-.064c-3.885 0-6.272 2.564-6.272 5.767 0 3.715 2.45 5.569 5.654 5.569Zm1.57-2.472a4.231 4.231 0 0 1-1.286.178c-1.761 0-3.203-.995-3.203-3.41 0-2.137 1.484-3.402 3.452-3.402.397 0 .745.043 1.036.157v6.477ZM69.916 9.286c-3.317 0-5.37 2.543-5.37 5.682 0 2.805 1.634 5.654 5.32 5.654 3.118 0 5.306-2.294 5.306-5.725 0-3.026-1.854-5.61-5.256-5.61Zm-.135 2.23c1.875 0 2.67 1.613 2.67 3.452 0 2.273-1.171 3.402-2.535 3.402-1.683 0-2.677-1.413-2.677-3.452 0-2.095 1.058-3.402 2.542-3.402ZM77.664 4.67c-.092 0-.156.042-.156.156V19.94c0 .064.064.177.156.199 1.058.326 2.166.483 3.31.483 3.274 0 6.456-2.032 6.456-6.123 0-2.961-2.032-5.213-5.213-5.213a6.38 6.38 0 0 0-2.01.313l-.029-4.752c0-.156-.042-.177-.198-.177h-2.316Zm7.046 10.1c0 2.45-1.677 3.6-3.488 3.6-.376 0-.71-.021-1.015-.114v-6.448c.348-.135.767-.249 1.541-.249 1.747 0 2.962 1.108 2.962 3.21ZM96.415 15.565c1.08 0 1.967-.022 2.273-.093.113-.021.156-.064.177-.156.064-.241.093-.746.093-1.364 0-2.102-1.265-4.666-4.532-4.666-3.338 0-5.192 2.72-5.192 5.789 0 2.72 1.435 5.547 5.455 5.547 1.506 0 2.479-.242 3.317-.64.085-.042.128-.113.128-.241V17.9c0-.106-.064-.128-.128-.085-.838.355-1.747.533-2.742.533-2.251 0-3.274-1.243-3.338-2.784h4.489Zm-4.489-1.904c.178-1.08.86-2.251 2.387-2.251 1.683 0 2.123 1.413 2.123 2.052v.178c-.092.021-.376.021-1.214.021h-3.296Z"/></svg>
